X:1
T: Fireside Reel
C:Cal Howard
R:Reel
Q: 232
K:Em
M:4/4
L:1/8
|:B|E3F G2 F2|E2 D2 B4|B2 A2 A2 GA|B2 A2 A2 B2|
E3F G2 F2|E2 D2 B3A|G2 E2 F2 D2|E4 E2 F2|
G3A B2 gf|e2 d2 B4|B2 A2 A2 GA|B2 A2 A2 B2|
G3A B2 gf|e2 d2 B3A|G2 E2 F2 D2|1E4 E2 B2:|2E4 E3||
